!!!COM: Bach, Johann Sebastian
!!!OPR: Joh. Seb. Bachs vierstimmige Choralgesänge
!!!XEN: Four-part Chorales
!!!OTL: 12. Als der gütige Gott
!!!SCT: BWV 264
!!!SCA: Thematisch-systematisches Verzeichnis der musikalischen Werke Johann Sebastian Bach: Bach-Werke-Verzeichnis (Schmieder)
!!!YOR: Bach Gesellschaft Edition xxxix
!!!ENC: Steven Rasmussen
!!!CDT: 1685/3//-1750/7/28/
!!!OCY: Deutschland
!!!YEC: Copyright (c) 1994, 2000 Center for Computer Assisted Research in the Humanities
!!!YEM: Rights to all derivative editions reserved
!!!YEN: United States of America
**kern	**kern	**kern	**kern	**silbe
*I:[BASSO]	*I:[TENORE]	*I:[ALTO]	*I:[SOPRANO]	*I:[SOPRANO]
*clefF4	*clefGv2	*clefG2	*clefG2	*
*k[f#]	*k[f#]	*k[f#]	*k[f#]	*
*G:	*G:	*G:	*G:	*
*M4/4	*M4/4	*M4/4	*M4/4	*
4G	4G	4B	4d	Als
=1	=1	=1	=1	=1
4E	4B	8e	4g	der
.	.	(4g	.	.
4D	4d	.	4a	gÃ¼-
.	.	8f#)	.	.
4G	4d	8gL	4b	-ti-
.	.	16f#L	.	.
.	.	16eJJ	.	.
4D	8dL	4f#	4a	-ge
.	8cJ	.	.	.
=2	=2	=2	=2	=2
2GG;	2B;	2d;	2g;	Gott
4r	4r	4r	4r	.
4D	4d	4f#	4a	voll-
=3	=3	=3	=3	=3
4G	4d	4g	4b	-en-
4C	4e	8gL	4cc	-den
.	.	8aJ	.	.
4D	4.d	8aL	4b	wollt'
.	.	8gJ	.	.
4DD	.	8gL	4a	sein
.	16dLL	8f#J	.	.
.	16cJJ	.	.	.
=4	=4	=4	=4	=4
2GG;	2B;	2d;	2g;	Wort,
4r	4r	4r	4r	.
4GG	4d	4g	4b	sandt
=5	=5	=5	=5	=5
4BB	4d	4g	4dd	er
4GG	4B	4g	4dd	sein'
4AA	4c	8gL	4cc	En-
.	.	8f#J	.	.
8BBL	4d	4g	4b	-gel
8CJ	.	.	.	.
=6	=6	=6	=6	=6
2D;	2d;	(4g	2a;	schnell,
.	.	4f#;)	.	.
4r	4r	4r	4r	.
4D#	4B	4f#	4b	dess
=7	=7	=7	=7	=7
4.E	4B	8f#L	4g	Na-
.	.	8eJ	.	.
.	8eL	8gL	4cc	-me
8F#	8dJ	8aJ	.	.
4G	4.d	8aL	4b	Ga-
.	.	8gJ	.	.
4D	.	8gL	4a	-bri-
.	16dLL	8f#J	.	.
.	16cJJ	.	.	.
=8	=8	=8	=8	=8
2E	8BL	4.g	2g	-el,
.	8A	.	.	.
.	8B	.	.	.
.	8c#J	16f#LL	.	.
.	.	16eJJ	.	.
4D;	4d;	4f#;	4a;	.
4D	4d	4f#	4a	in's
=9	=9	=9	=9	=9
4G	4d	4g	4b	ga-
8EL	8cL	4g	4cc	-li-
8CJ	8eJ	.	.	.
4D	4d	4.g	4b	-lÃ¤-
4DD	8.dL	.	4a	-isch
.	.	8f#	.	.
.	16cJk	.	.	.
=10	=10	=10	=10	=10
2.GG;	2.B;	2.d;	2.g;	Land.
==|!	==|!	==|!	==|!	==|!
*-	*-	*-	*-	*-
!!!RWG: Key is interpreted using the Humdrum key tool.
!!!URL-pdf: https://s9.imslp.org/files/imglnks/usimg/6/6b/IMSLP24489-PMLP09471-CCARH_Bach_Chorales.pdf#page=7 Musedata edition
!!!URL-pdf: https://s9.imslp.org/files/imglnks/usimg/7/7a/IMSLP04155-Bach_-_BGA_253-438.pdf#page=8 	Bach-Gesellschaft Ausgabe, Band 39 (pp.175-276) Leipzig: Breitkopf und Härtel, 1892. Plate B.W. XXXIX.
!!!END: 1994/05/06
!!!EMD: Converted from MuseData to Humdrum Dec 19, 2000, by Andreas Kornstaedt using muse2kern.
!!!EED: Craig Stuart Sapp
!!!EEV: 2024/03/31
!!!ONB: Some non-unicode characters
!!!filter-keyboard: satb2gs
